docpilot_doctor/assets/icons/calendar_selected.svg

<svg width="21" height="20" viewBox="0 0 21 20" fill="none" xmlns="http://www.w3.org/2000/svg">
<g clip-path="url(#clip0_59_584)">
<path d="M6.69528 0.769231C6.69528 0.565218 6.61564 0.369561 6.47386 0.225302C6.33209 0.0810437 6.13981 0 5.93931 0C5.73882 0 5.54653 0.0810437 5.40476 0.225302C5.26299 0.369561 5.18334 0.565218 5.18334 0.769231V2.38974C3.73187 2.50769 2.78036 2.79692 2.08083 3.50974C1.3803 4.22154 1.09605 5.19077 0.979126 6.66667H20.9791C20.8622 5.18974 20.578 4.22154 19.8774 3.50974C19.1779 2.79692 18.2254 2.50769 16.7749 2.38872V0.769231C16.7749 0.565218 16.6953 0.369561 16.5535 0.225302C16.4117 0.0810437 16.2194 0 16.0189 0C15.8184 0 15.6262 0.0810437 15.4844 0.225302C15.3426 0.369561 15.263 0.565218 15.263 0.769231V2.32103C14.5927 2.30769 13.8407 2.30769 12.9951 2.30769H8.9632C8.11752 2.30769 7.36558 2.30769 6.69528 2.32103V0.769231Z" fill="#006FFD"/>
<path fill-rule="evenodd" clip-rule="evenodd" d="M0.979126 9.79592C0.979126 8.9398 0.979126 8.17857 0.992126 7.5H20.9661C20.9791 8.17857 20.9791 8.9398 20.9791 9.79592V11.8367C20.9791 15.6847 20.9791 17.6092 19.8071 18.8041C18.6351 19.999 16.7501 20 12.9791 20H8.97913C5.20813 20 3.32213 20 2.15113 18.8041C0.980126 17.6082 0.979126 15.6847 0.979126 11.8367V9.79592ZM15.9791 11.8367C16.2443 11.8367 16.4987 11.7292 16.6862 11.5379C16.8738 11.3465 16.9791 11.087 16.9791 10.8163C16.9791 10.5457 16.8738 10.2862 16.6862 10.0948C16.4987 9.90343 16.2443 9.79592 15.9791 9.79592C15.7139 9.79592 15.4596 9.90343 15.272 10.0948C15.0845 10.2862 14.9791 10.5457 14.9791 10.8163C14.9791 11.087 15.0845 11.3465 15.272 11.5379C15.4596 11.7292 15.7139 11.8367 15.9791 11.8367ZM15.9791 15.9184C16.2443 15.9184 16.4987 15.8109 16.6862 15.6195C16.8738 15.4281 16.9791 15.1686 16.9791 14.898C16.9791 14.6273 16.8738 14.3678 16.6862 14.1764C16.4987 13.9851 16.2443 13.8776 15.9791 13.8776C15.7139 13.8776 15.4596 13.9851 15.272 14.1764C15.0845 14.3678 14.9791 14.6273 14.9791 14.898C14.9791 15.1686 15.0845 15.4281 15.272 15.6195C15.4596 15.8109 15.7139 15.9184 15.9791 15.9184ZM11.9791 10.8163C11.9791 11.087 11.8738 11.3465 11.6862 11.5379C11.4987 11.7292 11.2443 11.8367 10.9791 11.8367C10.7139 11.8367 10.4596 11.7292 10.272 11.5379C10.0845 11.3465 9.97913 11.087 9.97913 10.8163C9.97913 10.5457 10.0845 10.2862 10.272 10.0948C10.4596 9.90343 10.7139 9.79592 10.9791 9.79592C11.2443 9.79592 11.4987 9.90343 11.6862 10.0948C11.8738 10.2862 11.9791 10.5457 11.9791 10.8163ZM11.9791 14.898C11.9791 15.1686 11.8738 15.4281 11.6862 15.6195C11.4987 15.8109 11.2443 15.9184 10.9791 15.9184C10.7139 15.9184 10.4596 15.8109 10.272 15.6195C10.0845 15.4281 9.97913 15.1686 9.97913 14.898C9.97913 14.6273 10.0845 14.3678 10.272 14.1764C10.4596 13.9851 10.7139 13.8776 10.9791 13.8776C11.2443 13.8776 11.4987 13.9851 11.6862 14.1764C11.8738 14.3678 11.9791 14.6273 11.9791 14.898ZM5.97913 11.8367C6.24434 11.8367 6.4987 11.7292 6.68623 11.5379C6.87377 11.3465 6.97913 11.087 6.97913 10.8163C6.97913 10.5457 6.87377 10.2862 6.68623 10.0948C6.4987 9.90343 6.24434 9.79592 5.97913 9.79592C5.71391 9.79592 5.45956 9.90343 5.27202 10.0948C5.08448 10.2862 4.97913 10.5457 4.97913 10.8163C4.97913 11.087 5.08448 11.3465 5.27202 11.5379C5.45956 11.7292 5.71391 11.8367 5.97913 11.8367ZM5.97913 15.9184C6.24434 15.9184 6.4987 15.8109 6.68623 15.6195C6.87377 15.4281 6.97913 15.1686 6.97913 14.898C6.97913 14.6273 6.87377 14.3678 6.68623 14.1764C6.4987 13.9851 6.24434 13.8776 5.97913 13.8776C5.71391 13.8776 5.45956 13.9851 5.27202 14.1764C5.08448 14.3678 4.97913 14.6273 4.97913 14.898C4.97913 15.1686 5.08448 15.4281 5.27202 15.6195C5.45956 15.8109 5.71391 15.9184 5.97913 15.9184Z" fill="#006FFD"/>
</g>
<defs>
<clipPath id="clip0_59_584">
<rect width="20" height="20" fill="white" transform="translate(0.875)"/>
</clipPath>
</defs>
</svg>

<svg xmlns="http://www.w3.org/2000/svg" width="21" height="20" fill="none" viewBox="0 0 21 20"><g fill="#006ffd" clip-path="url(#clip0_59_584)"><path d="M6.695.77c0-.205-.08-.4-.221-.545a.75.75 0 0 0-1.07 0 .78.78 0 0 0-.22.544v1.62c-1.452.119-2.404.408-3.103 1.12S1.096 5.192.979 6.668h20c-.117-1.477-.401-2.445-1.102-3.157-.7-.713-1.652-1.002-3.102-1.121V.769c0-.204-.08-.4-.221-.544a.75.75 0 0 0-1.07 0 .78.78 0 0 0-.221.544v1.552c-.67-.013-1.422-.013-2.268-.013H8.963c-.845 0-1.597 0-2.268.013z"/><path fill-rule="evenodd" d="M.98 9.796c0-.856 0-1.617.012-2.296h19.974c.013.679.013 1.44.013 2.296v2.04c0 3.849 0 5.773-1.172 6.968S16.75 20 12.98 20h-4c-3.77 0-5.657 0-6.828-1.196S.98 15.684.98 11.837zm15 2.04a1 1 0 0 0 .706-.298 1.03 1.03 0 0 0 0-1.443.99.99 0 0 0-1.414 0 1.03 1.03 0 0 0 0 1.443 1 1 0 0 0 .707.299m0 4.082a1 1 0 0 0 .706-.298 1.03 1.03 0 0 0 0-1.444.99.99 0 0 0-1.414 0 1.03 1.03 0 0 0 0 1.444 1 1 0 0 0 .707.298m-4-5.102c0 .271-.106.53-.294.722a.99.99 0 0 1-1.414 0 1.03 1.03 0 0 1 0-1.443.99.99 0 0 1 1.414 0c.188.191.293.45.293.721m0 4.082c0 .27-.106.53-.294.722a.99.99 0 0 1-1.414 0 1.03 1.03 0 0 1 0-1.444.99.99 0 0 1 1.414 0c.188.192.293.451.293.722m-6-3.061a1 1 0 0 0 .706-.3 1.03 1.03 0 0 0 0-1.442.99.99 0 0 0-1.414 0 1.03 1.03 0 0 0 0 1.443 1 1 0 0 0 .707.299m0 4.081a1 1 0 0 0 .706-.298 1.03 1.03 0 0 0 0-1.444.99.99 0 0 0-1.414 0 1.03 1.03 0 0 0 0 1.444 1 1 0 0 0 .707.298" clip-rule="evenodd"/></g><defs><clipPath id="clip0_59_584"><path fill="#fff" d="M.875 0h20v20h-20z"/></clipPath></defs></svg>
